svg/300/outlined/nest_hello_doorbell.svg

<svg xmlns="http://www.w3.org/2000/svg" width="48" height="48" viewBox="0 -960 960 960"><path d="M480.057-90q-78.826 0-134.441-55.576Q290.001-201.15 290.001-280v-400q0-78.85 55.558-134.424 55.558-55.575 134.384-55.575t134.441 55.575Q669.999-758.85 669.999-680v400q0 78.85-55.558 134.424-55.558 55.575-134.384 55.575Zm-.247-45.384q60.498 0 102.652-42.02Q624.616-219.423 624.616-280v-400q0-60.577-41.964-102.596-41.964-42.02-102.462-42.02-60.498 0-102.652 42.02Q335.384-740.577 335.384-680v400q0 60.577 41.964 102.596 41.964 42.02 102.462 42.02Zm.19-426.924q32.048 0 54.87-22.822 22.822-22.822 22.822-54.87t-22.822-54.87q-22.822-22.822-54.87-22.822t-54.87 22.822q-22.822 22.822-22.822 54.87t22.822 54.87q22.822 22.822 54.87 22.822ZM480-480Zm0 237.692q32.048 0 54.87-22.822 22.822-22.822 22.822-54.87t-22.822-54.87q-22.822-22.822-54.87-22.822t-54.87 22.822q-22.822 22.822-22.822 54.87t22.822 54.87q22.822 22.822 54.87 22.822Zm.013-31.923q-19.398 0-32.59-13.104-13.192-13.105-13.192-32.503t13.104-32.857q13.105-13.459 32.503-13.459t32.857 13.371q13.459 13.371 13.459 32.77 0 19.398-13.371 32.59-13.371 13.192-32.77 13.192Z"/></svg>

<svg xmlns="http://www.w3.org/2000/svg" width="48" height="48" viewBox="0 -960 960 960"><path d="M480.06-90q-78.83 0-134.44-55.58Q290-201.15 290-280v-400q0-78.85 55.56-134.42Q401.12-870 479.94-870q78.83 0 134.44 55.58Q670-758.85 670-680v400q0 78.85-55.56 134.42Q558.88-90 480.06-90Zm-.25-45.38q60.5 0 102.65-42.02 42.16-42.02 42.16-102.6v-400q0-60.58-41.97-102.6-41.96-42.02-102.46-42.02-60.5 0-102.65 42.02-42.16 42.02-42.16 102.6v400q0 60.58 41.97 102.6 41.96 42.02 102.46 42.02Zm.19-426.93q32.05 0 54.87-22.82T557.69-640q0-32.05-22.82-54.87T480-717.69q-32.05 0-54.87 22.82T402.31-640q0 32.05 22.82 54.87T480-562.31Zm0 82.31Zm0 237.69q32.05 0 54.87-22.82T557.69-320q0-32.05-22.82-54.87T480-397.69q-32.05 0-54.87 22.82T402.31-320q0 32.05 22.82 54.87T480-242.31Zm.01-31.92q-19.39 0-32.59-13.11-13.19-13.1-13.19-32.5t13.11-32.86q13.1-13.45 32.5-13.45t32.86 13.37q13.45 13.37 13.45 32.77 0 19.39-13.37 32.59-13.37 13.19-32.77 13.19Z"/></svg>
